images/footer-logo.svg

<svg width="121" height="33" viewBox="0 0 121 33" fill="none" xmlns="http://www.w3.org/2000/svg">
<path fill-rule="evenodd" clip-rule="evenodd" d="M34.1681 24.82H39.6081V13.396C39.6081 12.6253 39.5401 11.8377 39.4041 11.033C39.2681 10.2283 39.0018 9.503 38.6051 8.857C38.2084 8.211 37.6418 7.67834 36.9051 7.259C36.1684 6.83966 35.1995 6.63 33.9981 6.63C32.7061 6.63 31.5218 6.919 30.4451 7.497C29.3684 8.075 28.5014 8.89666 27.8441 9.962V0H22.4041V24.82H27.8441V14.586C28.0028 14.11 28.2294 13.6793 28.5241 13.294C28.8188 12.9087 29.1418 12.5743 29.4931 12.291C29.8444 12.0077 30.2071 11.7923 30.5811 11.645C30.9551 11.4977 31.3008 11.424 31.6181 11.424C32.4114 11.424 33.0348 11.696 33.4881 12.24C33.9414 12.784 34.1681 13.634 34.1681 14.79V24.82ZM15.47 7.242C15.878 7.49133 16.116 7.66133 16.184 7.752L18.632 3.128C18.088 2.81067 17.493 2.49334 16.847 2.176C16.201 1.85867 15.504 1.57533 14.756 1.326C14.008 1.07667 13.226 0.872667 12.41 0.714C11.594 0.555333 10.7667 0.476 9.928 0.476C8.72666 0.476 7.58767 0.645998 6.511 0.986C5.43433 1.326 4.488 1.83033 3.672 2.499C2.856 3.16767 2.21 3.98933 1.734 4.964C1.258 5.93867 1.02 7.06066 1.02 8.33C1.02 9.23667 1.15033 10.03 1.411 10.71C1.67167 11.39 2.06833 11.9907 2.601 12.512C3.13367 13.0333 3.808 13.4923 4.624 13.889C5.44 14.2857 6.40333 14.654 7.514 14.994C7.84947 15.0937 8.17496 15.1898 8.49048 15.2823L10.192 15.7774C10.7602 15.9521 11.2616 16.1387 11.696 16.337C12.2173 16.575 12.6253 16.8413 12.92 17.136C13.2147 17.4307 13.362 17.8047 13.362 18.258C13.362 19.4593 12.376 20.06 10.404 20.06C9.47466 20.06 8.55667 19.9353 7.65 19.686C6.74333 19.4367 5.92167 19.1533 5.185 18.836C4.44833 18.5187 3.83067 18.2013 3.332 17.884C2.83333 17.5667 2.53867 17.3513 2.448 17.238L0 22.1C0.70267 22.576 1.46766 22.9953 2.295 23.358C3.12234 23.7207 3.978 24.0323 4.862 24.293C5.746 24.5537 6.65266 24.752 7.582 24.888C8.51134 25.024 9.418 25.092 10.302 25.092C11.458 25.092 12.58 24.9617 13.668 24.701C14.756 24.4403 15.7193 24.021 16.558 23.443C17.3967 22.865 18.071 22.1057 18.581 21.165C19.091 20.2243 19.346 19.074 19.346 17.714C19.346 16.6033 19.1703 15.6513 18.819 14.858C18.4677 14.0647 17.969 13.3903 17.323 12.835C16.677 12.2797 15.8893 11.815 14.96 11.441C14.0307 11.067 12.988 10.7213 11.832 10.404C11.5524 10.3284 11.2842 10.2554 11.0273 10.1849L9.622 9.792C8.98733 9.61067 8.46034 9.41233 8.041 9.197C7.62167 8.98167 7.30433 8.738 7.089 8.466C6.87367 8.194 6.766 7.854 6.766 7.446C6.766 6.10866 7.76332 5.44 9.758 5.44C10.4833 5.44 11.2087 5.542 11.934 5.746C12.6593 5.95 13.328 6.188 13.94 6.46C14.552 6.732 15.062 6.99267 15.47 7.242ZM51.9482 25.16C50.4295 25.16 49.0752 24.9107 47.8852 24.412C46.6952 23.9133 45.6922 23.239 44.8762 22.389C44.0602 21.539 43.4426 20.553 43.0232 19.431C42.6039 18.309 42.3942 17.136 42.3942 15.912C42.3942 14.688 42.6039 13.515 43.0232 12.393C43.4426 11.271 44.0602 10.285 44.8762 9.435C45.6922 8.585 46.6952 7.905 47.8852 7.395C49.0752 6.885 50.4295 6.63 51.9482 6.63C53.4669 6.63 54.8156 6.885 55.9942 7.395C57.1729 7.905 58.1702 8.585 58.9862 9.435C59.8022 10.285 60.4256 11.271 60.8562 12.393C61.2869 13.515 61.5022 14.688 61.5022 15.912C61.5022 17.136 61.2926 18.309 60.8732 19.431C60.4539 20.553 59.8362 21.539 59.0202 22.389C58.2042 23.239 57.2012 23.9133 56.0112 24.412C54.8212 24.9107 53.4669 25.16 51.9482 25.16ZM49.0922 19.295C48.3442 18.445 47.9702 17.3173 47.9702 15.912C47.9702 15.232 48.0722 14.603 48.2762 14.025C48.4802 13.447 48.7579 12.954 49.1092 12.546C49.4606 12.138 49.8799 11.8207 50.3672 11.594C50.8546 11.3673 51.3816 11.254 51.9482 11.254C53.0816 11.254 54.0222 11.679 54.7702 12.529C55.5182 13.379 55.8922 14.5067 55.8922 15.912C55.8922 16.592 55.7902 17.221 55.5862 17.799C55.3822 18.377 55.1046 18.87 54.7532 19.278C54.4019 19.686 53.9882 20.0033 53.5122 20.23C53.0362 20.4567 52.5149 20.57 51.9482 20.57C50.7922 20.57 49.8402 20.145 49.0922 19.295ZM75.7463 11.628C74.4317 11.6507 73.2417 11.866 72.1763 12.274C71.111 12.682 70.3403 13.294 69.8643 14.11V24.82H64.4243V6.97H69.4223V10.574C70.0343 9.37266 70.822 8.432 71.7853 7.752C72.7487 7.072 73.7743 6.72067 74.8623 6.698H75.4063C75.5197 6.698 75.633 6.70933 75.7463 6.732V11.628ZM87.2534 24.752C88.2168 24.48 89.0724 24.1853 89.8204 23.868L88.7664 19.55C88.4491 19.7087 88.0751 19.856 87.6444 19.992C87.2138 20.128 86.7944 20.196 86.3864 20.196C85.9331 20.196 85.5591 20.0657 85.2645 19.805C84.9698 19.5443 84.8224 19.1193 84.8224 18.53V11.084H88.4604V6.97H84.8224V1.292H79.3824V6.97H77.1044V11.084H79.3824V20.4C79.3824 21.2613 79.5128 21.998 79.7734 22.61C80.0341 23.222 80.3911 23.715 80.8444 24.089C81.2978 24.463 81.8248 24.735 82.4254 24.905C83.0261 25.075 83.6664 25.16 84.3464 25.16C85.3211 25.16 86.2901 25.024 87.2534 24.752ZM92.0966 0H97.5366V18.462C97.5366 19.822 98.1146 20.502 99.2706 20.502C99.5426 20.502 99.8429 20.4623 100.172 20.383C100.5 20.3037 100.801 20.1847 101.073 20.026L101.787 24.106C101.107 24.4233 100.325 24.6727 99.4406 24.854C98.5566 25.0353 97.7292 25.126 96.9586 25.126C95.3945 25.126 94.1932 24.718 93.3546 23.902C92.5159 23.086 92.0966 21.9073 92.0966 20.366V0ZM104.828 27.846C104.431 27.778 104.006 27.6647 103.553 27.506V32.164C104.029 32.3453 104.499 32.4757 104.964 32.555C105.428 32.6343 105.887 32.674 106.341 32.674C108.018 32.674 109.469 32.215 110.693 31.297C111.917 30.379 112.767 29.1833 113.243 27.71L120.043 6.97H114.943L111.373 20.162L107.225 6.97H101.615L108.415 24.82C108.12 25.9987 107.791 26.8147 107.429 27.268C107.066 27.7213 106.556 27.948 105.899 27.948C105.581 27.948 105.224 27.914 104.828 27.846Z" fill="white"/>
</svg>

<svg width="121" height="33" fill="none" xmlns="http://www.w3.org/2000/svg"><path fill-rule="evenodd" clip-rule="evenodd" d="M34.168 24.82h5.44V13.396c0-.77-.068-1.558-.204-2.363a6.036 6.036 0 0 0-.799-2.176c-.397-.646-.963-1.179-1.7-1.598-.737-.42-1.706-.629-2.907-.629-1.292 0-2.476.289-3.553.867a6.785 6.785 0 0 0-2.6 2.465V0h-5.44v24.82h5.44V14.586a4.4 4.4 0 0 1 .68-1.292 5.83 5.83 0 0 1 .968-1.003 4.173 4.173 0 0 1 1.088-.646c.374-.147.72-.221 1.037-.221.793 0 1.417.272 1.87.816.453.544.68 1.394.68 2.55v10.03ZM15.47 7.242c.408.25.646.42.714.51l2.448-4.624a28.403 28.403 0 0 0-1.785-.952c-.646-.317-1.343-.6-2.091-.85-.748-.25-1.53-.453-2.346-.612A12.973 12.973 0 0 0 9.928.476c-1.201 0-2.34.17-3.417.51a8.435 8.435 0 0 0-2.839 1.513 7.266 7.266 0 0 0-1.938 2.465c-.476.975-.714 2.097-.714 3.366 0 .907.13 1.7.391 2.38.26.68.657 1.28 1.19 1.802.533.521 1.207.98 2.023 1.377.816.397 1.78.765 2.89 1.105.335.1.661.196.976.288l1.702.495c.568.175 1.07.362 1.504.56.521.238.93.504 1.224.799.295.295.442.669.442 1.122 0 1.201-.986 1.802-2.958 1.802-.93 0-1.847-.125-2.754-.374a18.925 18.925 0 0 1-2.465-.85 13.244 13.244 0 0 1-1.853-.952c-.499-.317-.793-.533-.884-.646L0 22.1c.703.476 1.468.895 2.295 1.258s1.683.674 2.567.935a19.674 19.674 0 0 0 5.44.799c1.156 0 2.278-.13 3.366-.391 1.088-.26 2.051-.68 2.89-1.258a6.448 6.448 0 0 0 2.023-2.278c.51-.94.765-2.091.765-3.451 0-1.11-.176-2.063-.527-2.856a5.647 5.647 0 0 0-1.496-2.023c-.646-.555-1.434-1.02-2.363-1.394-.93-.374-1.972-.72-3.128-1.037l-.805-.22-1.405-.392c-.635-.181-1.162-.38-1.581-.595-.42-.215-.737-.459-.952-.731-.215-.272-.323-.612-.323-1.02 0-1.337.997-2.006 2.992-2.006.725 0 1.45.102 2.176.306.725.204 1.394.442 2.006.714.612.272 1.122.533 1.53.782ZM51.948 25.16c-1.519 0-2.873-.25-4.063-.748-1.19-.499-2.193-1.173-3.009-2.023a8.542 8.542 0 0 1-1.853-2.958 9.97 9.97 0 0 1-.629-3.519c0-1.224.21-2.397.63-3.519a8.542 8.542 0 0 1 1.852-2.958c.816-.85 1.82-1.53 3.01-2.04 1.19-.51 2.543-.765 4.062-.765 1.519 0 2.868.255 4.046.765 1.179.51 2.176 1.19 2.992 2.04a8.753 8.753 0 0 1 1.87 2.958 9.735 9.735 0 0 1 .646 3.519c0 1.224-.21 2.397-.629 3.519a8.54 8.54 0 0 1-1.853 2.958c-.816.85-1.819 1.524-3.009 2.023-1.19.499-2.544.748-4.063.748Zm-2.856-5.865c-.748-.85-1.122-1.978-1.122-3.383 0-.68.102-1.309.306-1.887a4.57 4.57 0 0 1 .833-1.479 3.702 3.702 0 0 1 2.839-1.292c1.134 0 2.074.425 2.822 1.275.748.85 1.122 1.978 1.122 3.383 0 .68-.102 1.309-.306 1.887a4.568 4.568 0 0 1-.833 1.479 3.752 3.752 0 0 1-1.24.952 3.59 3.59 0 0 1-1.565.34c-1.156 0-2.108-.425-2.856-1.275Zm26.654-7.667c-1.314.023-2.504.238-3.57.646-1.065.408-1.836 1.02-2.312 1.836v10.71h-5.44V6.97h4.998v3.604c.612-1.201 1.4-2.142 2.363-2.822.964-.68 1.99-1.031 3.077-1.054h.544c.114 0 .227.011.34.034v4.896Zm11.507 13.124a21.712 21.712 0 0 0 2.567-.884l-1.054-4.318a7.717 7.717 0 0 1-1.122.442c-.43.136-.85.204-1.258.204-.453 0-.827-.13-1.121-.391-.295-.26-.443-.686-.443-1.275v-7.446h3.638V6.97h-3.638V1.292h-5.44V6.97h-2.278v4.114h2.278V20.4c0 .861.13 1.598.391 2.21.261.612.618 1.105 1.071 1.479.454.374.98.646 1.581.816.601.17 1.241.255 1.921.255.975 0 1.944-.136 2.907-.408ZM92.097 0h5.44v18.462c0 1.36.578 2.04 1.734 2.04.272 0 .572-.04.901-.119.328-.08.629-.198.901-.357l.714 4.08c-.68.317-1.462.567-2.346.748-.884.181-1.712.272-2.482.272-1.565 0-2.766-.408-3.604-1.224-.84-.816-1.258-1.995-1.258-3.536V0Zm12.731 27.846a7.927 7.927 0 0 1-1.275-.34v4.658c.476.181.946.312 1.411.391.464.08.923.119 1.377.119 1.677 0 3.128-.459 4.352-1.377a7.106 7.106 0 0 0 2.55-3.587l6.8-20.74h-5.1l-3.57 13.192-4.148-13.192h-5.61l6.8 17.85c-.295 1.179-.624 1.995-.986 2.448-.363.453-.873.68-1.53.68-.318 0-.675-.034-1.071-.102Z" fill="#fff"/></svg>
